X:1
T:Title
%%score ( 1 2 ) ( 3 4 )
L:1/8
Q:1/4=100
M:4/4
K:D
V:1 treble nm="Midi_20"
V:2 treble 
V:3 bass nm="Midi_20"
V:4 bass 
V:1
"^Temple (84. 84. 88. 84)""^E. J. Hopkins\n(1818-1901)" F2 F2 G2 F2 | F2 E2 E2 D2 | B4 A2 E2 | %3
 F8 || F2 F2 G2 F2 | F2 E2 D2 F2 | B4 A2 ^G2 | A8 || A2 A2 d2 c2 | c2 B2 A2 F2 | F2 F2 B2 A2 | %11
 A2 G2 G2 F2 || F2 F2 G2 F2 | E2 B2 c2 d2 | A4 G2 E2 | D8 |] %16
V:2
 D2 D2 D2 D2 | C2 C2 C2 D2 | D4 D2 C2 | D8 || D2 D2 D2 D2 | C2 C2 D2 D2 | F4 D2 D2 | C8 || %8
 E2 E2 A2 A2 | A2 G2 E2 D2 | D2 D2 D2 D2 | D2 D2 E2 E2 || D2 D2 ^D2 D2 | E2 E2 E2 D2 | D4 C2 C2 | %15
 D8 |] %16
V:3
 A,2 A,2 B,2 A,2 | A,2 G,2 G,2 F,2 | (G,2 F,2) E,2 A,2 | A,8 || A,2 A,2 B,2 A,2 | %5
 ^A,2 A,2 B,2 B,2 | B,4 B,2 B,2 | A,8 || C2 C2 D2 D2 | D2 D2 A,2 A,2 | D2 C2 B,2 F,2 | %11
 F,2 B,2 C2 C2 || B,2 B,2 B,2 B,2 | B,2 B,2 G,2 G,2 | F,4 E,2 G,2 | F,8 |] %16
V:4
 D,2 D,2 D,2 D,2 | A,,2 A,,2 B,,2 B,,2 | G,,4 A,,2 A,,2 | D,8 || D,2 D,2 D,2 D,2 | %5
 F,2 F,2 B,,2 B,,2 | D,4 E,2 E,2 | A,,8 || A,2 G,2 F,2 F,2 | G,2 B,,2 C,2 D,2 | D,2 D,2 G,2 F,2 | %11
 B,,2 B,,2 ^A,,2 A,,2 || B,,2 B,2 A,2 A,2 | G,2 G,2 E,2 E,2 | A,,4 A,,2 A,,2 | D,8 |] %16

